svg/train-station.svg

<svg xmlns="http://www.w3.org/2000/svg" viewBox="0 0 100 100">
    <path d="M71 18H29v-2h-2V6h2V4h5V0h3v4h26V0h3v4h5v2h2v10h-2v2ZM5 43h3v18H5V43ZM25 43h3v18h-3V43ZM42 43h-3v18h3V43ZM62 43h-3v18h3V43ZM76 43h-3v18h3V43ZM96 43h-3v18h3V43ZM0 79h100v21H0V79Z"/>
    <path fill="currentColor" fill-rule="evenodd" d="M29 16h42V6H29v10Zm5-2h-2V8h2v6Zm3-3v3h-2v-3h1V8h2v3h-1Zm3 0v3h2v-3h-1V8h-2v3h1Zm7 0v3h-2v-3h-1V8h2v3h1Zm0 0V8h2v3h-2Zm4 3h2v-3h1v3h2v-3h-1V8h-2v3h-2v3Zm8-3v3h2v-3h-1V8h-2v3h1Zm5 3v-3h2V8h2v6h-4Zm0-3h-2V8h2v3Z" clip-rule="evenodd"/>
    <path fill="currentColor" d="M2 44h29v7H2v-7ZM1 52h31v4H1v-4ZM65 44H36v7h29v-7ZM66 52H35v4h31v-4ZM99 44H70v7h29v-7ZM100 52H69v4h31v-4ZM0 97h100v3H0v-3Z"/>
</svg>

<svg width="100" height="100" viewBox="0 0 100 100" fill="none" xmlns="http://www.w3.org/2000/svg">
<g clip-path="url(#clip0_120_707)">
<path d="M71 18H29V16H27V6H29V4H34V0H37V4H63V0H66V4H71V6H73V16H71V18Z" fill="black"/>
<path d="M5 43H8V61H5V43Z" fill="black"/>
<path d="M25 43H28V61H25V43Z" fill="black"/>
<path d="M42 43H39V61H42V43Z" fill="black"/>
<path d="M62 43H59V61H62V43Z" fill="black"/>
<path d="M76 43H73V61H76V43Z" fill="black"/>
<path d="M96 43H93V61H96V43Z" fill="black"/>
<path d="M0 79H100V100H0V79Z" fill="black"/>
<path fill-rule="evenodd" clip-rule="evenodd" d="M29 16H71V6H29V16ZM34 14H32V8H34V14ZM37 11V14H35V11H36V8H38V11H37ZM40 11V14H42V11H41V8H39V11H40ZM47 11V14H45V11H44V8H46V11H47ZM47 11V8H49V11H47ZM51 14H53V11H54V14H56V11H55V8H53V11H51V14ZM59 11V14H61V11H60V8H58V11H59ZM64 14V11H66V8H68V14H64ZM64 11H62V8H64V11Z" fill="#326331"/>
<path d="M2 44H31V51H2V44Z" fill="#326331"/>
<path d="M1 52H32V56H1V52Z" fill="#326331"/>
<path d="M65 44H36V51H65V44Z" fill="#326331"/>
<path d="M66 52H35V56H66V52Z" fill="#326331"/>
<path d="M99 44H70V51H99V44Z" fill="#326331"/>
<path d="M100 52H69V56H100V52Z" fill="#326331"/>
<path d="M0 97H100V100H0V97Z" fill="#326331"/>
</g>
<defs>
<clipPath id="clip0_120_707">
<rect width="100" height="100" fill="white"/>
</clipPath>
</defs>
</svg>
